X:151
T:Sea,The. RHu.147
S:R.Hughes MS,1823,Whitchurch,Shrops.
A:Whitchurch, Shropshire
Z:Tony Weatherall 2006
M:6/8
L:1/8
Q:3/8=100
R:Air
K:D
A|d3-d2A|f3-f2 d|e3 Az2|d2zz2F|\
e2cd2B|c2A B2^G|A2c ed B|A3zz2|\
z2A A2B|c2c cBc|d2dd2B^G|^E2E F^GA|\
G3z2z|z2zz2c|c2c B2c|e3ezc|\
d3 ded|c2zz2A|A^GF^E2E|F^ED C2c|\
dcB A^GF|Bz2c3|F3zz2|d3d2d|\
d3z2z|A3A2 A|A2zz2A|d2d dcB|\
A2FFGA|B2B BAG|F2DD2F|d3c3|\
B3c3|^A3 A^GA|B3zB^A|A3ABc|\
d3dcd|e3ede|f2zz2d|eAz2z2|\
efd zzz|e2e cBc|d2zz2d|eA zz2e|\
fdzz2d|efg ABc|d3d2|]

